X: 1
T: I Lost My Love
M: 6/8
L: 1/8
Z: 2006 John Chambers <jc:trillian.mit.edu>
B: Kerr Coll.
B: Pinewoods Alternates
K: Am
E \
| "Am"ABA AGE | "C"c3  c2d |     efe     edc | "(Em)"g3 e2a \
|  "C"gec cge | "G"dBG GAB | "Am"c2A "Em"BGE |  "Am" c3 A2 :|
|: e \
| "Am"aba age | "Em"gag geg | "Am"aba     age | "Em"g3 e2a \
|  "C"gec cge |  "G"dBG GAB | "Am"c2A "Em"BGE | "Am"c3 A2 :|
